X:3030
T:Polska efter Per Jonas Lång
S:efter [[Personer/Per Jonas Lång]] (?)
O:Haverö socken, Medelpad
B:EÖ, nr 574
R:Polska
Z:Nils L
L:1/8
M:3/4
K:Dm
A>F D4- | D>F [A,4E4] | D>^C DE FG | A>B (3cdc (3BAG |
GF D4- | D>F E4 | D>C DE FG | AB (3cdc (3BAG | B>A A4 :| 
A>d ^cd ef | (3gag (3faf e>f | (3gag (3faf e>^c |
d>f ed =c_B | (3ABA (3GEG (3FDF | (3ECE D4 ||
(:musicend:)
(:music:)
